resources/images/icon-linked-in.svg

<svg width="24" height="24" viewBox="0 0 24 24" fill="none" xmlns="http://www.w3.org/2000/svg">
<path fill-rule="evenodd" clip-rule="evenodd" d="M6.96818 7.94474C6.15578 7.94289 5.49857 7.28265 5.5 6.46978C5.50143 5.6569 6.16096 4.99898 6.97337 5C7.78578 5.00102 8.44365 5.6606 8.44304 6.47348C8.44483 6.865 8.28988 7.24094 8.01277 7.51737C7.73566 7.79381 7.35947 7.94771 6.96818 7.94474ZM8.19741 18H5.66449V9.00787H8.19741V18ZM15.8784 18H18.4892V12.5231C18.6101 11.0393 17.7092 9.66269 16.3017 9.18029C14.8942 8.69789 13.3389 9.23278 12.5253 10.4791V9.00787H9.99569V18H12.5286V13.4216C12.5286 10.8873 15.8784 10.6415 15.8784 13.4216V18Z" fill="white"/>
</svg>

<svg width="24" height="24" fill="none" xmlns="http://www.w3.org/2000/svg"><path fill-rule="evenodd" clip-rule="evenodd" d="M6.968 7.945a1.472 1.472 0 111.475-1.472 1.465 1.465 0 01-1.475 1.472zM8.198 18H5.663V9.008h2.533V18zm7.68 0h2.611v-5.477a3.251 3.251 0 00-5.964-2.044V9.008h-2.53V18h2.534v-4.578c0-2.535 3.35-2.78 3.35 0V18z" fill="#fff"/></svg>
